X:3464
T:Spikens vals
R:Vals
O:Västmanland
S:Efter Josefina Paulsson
Z:Konrad Skeri Ekblad
M:3/4
L:1/8
K:G
D2 |"G" G2 F2 G2 | D3 D D2 |"D" D2 FD FA |"G" G2 BA G2 |
G2 F2 G2 | D3 D D2 |"D" D2 FD FA |1 "G" G4 :|
|:2"G" G3 A Bc | d3 c BA | B2 G2 B2 |"D" AB cA FA |
"G" GF GA Bc |d3 c BA | B2 G2 B2 | "D" AB cA FA :|"G" G4 |]
(:musicend:)
(:music:)
